X:34
T:Tomorrow Morning
M:4/4
L:1/8
R:hornpipe
K:D
(3gfe | dAFA dfed | ecAc egfe | fafd Bged | c2A2 A2 (3gfe |
dAFA dfed | ecAc egfe | fafd Bgec | d2dc d2 ::
(3efg | afdf a2gf | gece g2fe | fafd Bged | c2A2 A2 (3gfe |
dAFA dfed | ecAc egfe | fafd Bgec | d2dc d2 :|
